src/assets/logos/gene.svg

<svg width="1148" height="250" viewBox="0 0 1148 250" fill="none" xmlns="http://www.w3.org/2000/svg">
<path d="M63.6691 128.644C59.9325 132.433 59.97 138.532 63.7527 142.275L109.153 187.196C112.945 190.948 119.061 190.91 122.807 187.112L246.592 61.5904C248.384 59.7727 249.383 57.3185 249.37 54.7657L249.13 9.59553C249.102 4.26788 244.76 -0.0281209 239.432 0.000138624L194.281 0.239638C191.717 0.253238 189.264 1.28702 187.463 3.11265L63.6691 128.644Z" fill="#FF4D00"/>
<path d="M44.0481 148.048C27.8962 164.372 28.0359 190.699 44.36 206.851C60.6842 223.003 87.0112 222.863 103.163 206.539L237.277 70.9949C245.033 63.1557 249.358 52.5565 249.3 41.5287C249.178 18.5647 230.463 0.0474511 207.499 0.169259C196.471 0.227753 185.918 4.66459 178.162 12.5037L44.0481 148.048Z" fill="#FF4D00"/>
<path d="M167.209 250C213.137 249.755 250.171 212.324 249.926 166.396L249.403 68.3224L166.686 151.926L167.209 250Z" fill="#FF4D00"/>
<path d="M180.862 0.439885L165.879 0.5198L165.959 15.5032L180.862 0.439885Z" fill="#FF4D00"/>
<path d="M249.481 83.2376L249.402 68.3237L234.568 83.3172L249.481 83.2376Z" fill="#FF4D00"/>
<path d="M98.1447 84.0448L180.861 0.441177L82.7178 0.964622C36.7897 1.20958 -0.243746 38.6402 0.0012082 84.5682L98.1447 84.0448Z" fill="#FF4D00"/>
<path d="M301.838 187.551C300.885 186.735 300.409 185.578 300.409 184.082V68.5714C300.409 67.2108 300.817 66.1224 301.634 65.3061C302.586 64.3537 303.743 63.8775 305.103 63.8775H322.858C323.674 63.8775 324.219 63.8095 324.491 63.6734H329.797C330.341 63.6734 330.817 63.4693 331.226 63.0612C332.314 62.2448 333.47 61.3605 334.695 60.4081C335.919 59.3197 337.076 58.2993 338.164 57.3469C338.845 56.9387 339.185 56.3945 339.185 55.7142V29.1836C339.185 27.687 339.797 26.5306 341.021 25.7142C341.294 25.4421 341.906 25.17 342.858 24.8979L448.572 24.6938H494.491C506.464 24.6938 519.253 24.6938 532.858 24.6938C546.464 24.6938 560.273 24.6938 574.287 24.6938C588.436 24.6938 602.382 24.6938 616.124 24.6938C630.001 24.6938 642.994 24.6938 655.103 24.6938C667.348 24.6938 678.368 24.6938 688.164 24.6938C698.096 24.5578 706.192 24.4897 712.45 24.4897C713.811 24.4897 714.967 24.9659 715.919 25.9183C716.872 26.8707 717.348 27.9591 717.348 29.1836V58.7755C717.348 60.2721 716.872 61.4965 715.919 62.4489C714.967 63.2653 713.811 63.6734 712.45 63.6734H685.307C683.947 63.6734 682.79 63.1972 681.838 62.2449C681.021 61.2925 680.613 60.136 680.613 58.7755V34.0816C680.613 33.4013 680.477 32.9251 680.205 32.653C679.525 30.4761 678.028 29.3877 675.715 29.3877H654.287L506.736 29.1836H485.511C484.015 29.1836 482.858 29.7278 482.042 30.8163L458.164 54.4897C457.212 55.4421 456.328 56.3265 455.511 57.1428C454.695 57.8231 453.947 58.5033 453.266 59.1836C452.586 59.8639 451.974 60.4761 451.43 61.0204C451.157 61.4285 450.749 61.7687 450.205 62.0408C449.797 62.3129 449.389 62.585 448.981 62.8571C448.709 62.8571 448.572 62.9251 448.572 63.0612C448.164 63.1972 447.756 63.3333 447.348 63.4693C447.076 63.4693 446.736 63.5374 446.328 63.6734C446.055 63.6734 445.783 63.7414 445.511 63.8775C445.375 63.8775 445.171 63.8775 444.899 63.8775H343.879C342.654 63.8775 341.634 64.2857 340.817 65.102C340.001 65.7823 339.457 66.6666 339.185 67.7551V216.531C340.137 218.707 341.702 219.796 343.879 219.796C348.64 219.66 352.382 219.66 355.103 219.796C357.824 219.796 359.933 219.796 361.43 219.796C362.926 219.796 363.947 219.728 364.491 219.592C365.171 219.32 365.851 218.844 366.532 218.163L398.368 187.347C399.185 186.667 400.137 186.258 401.226 186.122H463.062C463.062 180.272 463.062 175.374 463.062 171.429C463.198 167.483 463.266 164.286 463.266 161.837C463.266 159.388 463.266 157.551 463.266 156.326C463.266 155.102 463.266 154.286 463.266 153.878V153.469C463.266 151.973 463.743 150.816 464.695 150C465.647 149.048 466.736 148.571 467.96 148.571H493.266C494.491 148.571 495.103 147.959 495.103 146.735V145.714C495.103 144.49 494.491 143.878 493.266 143.878L463.062 143.673H391.838C390.477 143.673 389.321 143.265 388.368 142.449C387.552 141.497 387.144 140.34 387.144 138.98V110C387.144 108.775 387.552 107.755 388.368 106.939C389.321 105.986 390.477 105.51 391.838 105.51H460.817C462.178 105.51 463.266 105.918 464.083 106.735L499.797 142.449C500.749 143.265 501.226 144.422 501.226 145.918V184.082C501.226 184.762 501.089 185.442 500.817 186.122C500.681 186.667 500.341 187.075 499.797 187.347L464.899 223.061C463.947 224.014 462.79 224.49 461.43 224.49H338.981L301.838 187.551ZM516.94 68.5714C516.94 67.2108 517.416 66.1224 518.368 65.3061C519.321 64.3537 520.409 63.8775 521.634 63.8775C525.171 63.8775 528.709 63.8775 532.246 63.8775C535.239 63.8775 538.368 63.8775 541.634 63.8775C545.035 63.7414 548.096 63.6734 550.817 63.6734C552.178 63.6734 553.334 64.1496 554.287 65.102C555.239 65.9183 555.715 67.0068 555.715 68.3673V74.6938L555.511 96.9387C555.239 98.0272 554.627 98.9115 553.675 99.5918C552.858 100.272 551.906 100.612 550.817 100.612H523.674C522.314 100.612 521.634 101.224 521.634 102.449V103.469C521.634 104.83 522.314 105.51 523.674 105.51H712.45C713.947 105.51 715.103 105.986 715.919 106.939C716.872 107.755 717.348 108.843 717.348 110.204V139.184C717.348 140.408 716.872 141.497 715.919 142.449C715.103 143.265 713.947 143.673 712.45 143.673H560.205C558.981 143.673 557.892 144.15 556.94 145.102C555.987 146.054 555.511 147.143 555.511 148.367V214.898C555.511 215.714 555.579 216.258 555.715 216.531C556.396 218.707 557.892 219.796 560.205 219.796C565.103 219.66 568.981 219.66 571.838 219.796C574.695 219.796 576.872 219.796 578.368 219.796C580.001 219.796 581.158 219.728 581.838 219.592C582.518 219.32 583.13 218.844 583.674 218.163C584.627 217.347 585.715 216.395 586.94 215.306C587.892 214.354 588.981 213.333 590.205 212.245C591.43 211.02 592.79 209.66 594.287 208.163C596.6 205.85 599.049 203.469 601.634 201.02C604.219 198.571 606.532 196.326 608.572 194.286C611.157 191.973 613.606 189.66 615.919 187.347C617.008 186.531 618.096 186.122 619.185 186.122H714.695C715.511 186.122 716.055 186.531 716.328 187.347C716.736 188.027 716.6 188.707 715.919 189.388C713.743 191.565 710.817 194.49 707.144 198.163C703.47 201.837 699.865 205.51 696.328 209.184C692.79 212.721 689.661 215.85 686.94 218.571C684.355 221.292 682.926 222.789 682.654 223.061C681.702 224.014 680.613 224.49 679.389 224.49H557.348C556.396 224.49 555.307 224.014 554.083 223.061L518.368 187.143C517.824 186.871 517.416 186.463 517.144 185.918C517.008 185.238 516.94 184.558 516.94 183.878V143.878C516.94 142.381 517.416 141.224 518.368 140.408C519.321 139.592 520.409 139.184 521.634 139.184H545.919C547.28 139.184 548.368 138.707 549.185 137.755C550.137 136.803 550.613 135.646 550.613 134.286V114.898C550.613 113.537 550.137 112.449 549.185 111.633C548.368 110.68 547.28 110.204 545.919 110.204H521.634C520.409 110.204 519.321 109.728 518.368 108.775C517.416 107.823 516.94 106.735 516.94 105.51V68.5714Z" fill="#FF4D00"/>
<path d="M730.5 68.1632C730.5 66.9387 730.908 65.8503 731.725 64.8979C732.677 63.9455 733.833 63.4693 735.194 63.4693L759.888 63.2653C760.432 63.2653 760.908 63.0612 761.316 62.653C762.405 61.8367 763.561 60.9523 764.786 59.9999C766.01 59.0476 767.167 58.0952 768.255 57.1428C768.799 56.7346 769.072 56.1904 769.072 55.5101V28.9795C769.208 27.755 769.616 26.8027 770.296 26.1224C770.976 25.4421 771.793 24.9659 772.745 24.6938H891.316C892.677 24.6938 893.833 25.17 894.786 26.1224L930.092 62.2449C930.908 63.1972 931.316 64.3537 931.316 65.7142V155.51C931.316 156.599 930.908 157.687 930.092 158.775L899.48 190.204C898.527 191.156 898.051 192.245 898.051 193.469V214.898C898.051 216.258 898.527 217.415 899.48 218.367C900.432 219.32 901.589 219.796 902.949 219.796H1000.7C1003.02 219.796 1004.85 219.796 1006.21 219.796C1007.71 219.796 1008.87 219.796 1009.68 219.796C1010.64 219.66 1011.38 219.524 1011.93 219.388C1012.47 219.116 1012.95 218.707 1013.36 218.163L1045.6 187.347C1046.42 186.531 1047.51 186.122 1048.87 186.122H1144.17C1145.13 186.122 1145.74 186.531 1146.01 187.347C1146.42 188.027 1146.28 188.639 1145.6 189.184C1143.43 191.361 1140.5 194.354 1136.83 198.163C1133.15 201.837 1129.55 205.51 1126.01 209.184C1122.47 212.721 1119.34 215.85 1116.62 218.571C1114.04 221.292 1112.61 222.789 1112.34 223.061C1111.11 224.014 1110.02 224.49 1109.07 224.49H898.051C896.827 224.49 895.738 224.014 894.786 223.061C893.833 222.109 893.357 221.02 893.357 219.796V73.2653C893.357 72.0408 893.833 70.9523 894.786 70C895.738 69.0476 896.827 68.5714 898.051 68.5714H923.357C923.901 68.5714 924.31 68.3673 924.582 67.9591C924.99 67.551 925.194 67.1428 925.194 66.7346V65.7142C925.194 64.4897 924.582 63.8775 923.357 63.8775H773.357C772.133 63.8775 771.044 64.3537 770.092 65.3061C769.14 66.1224 768.663 67.2108 768.663 68.5714V219.796C768.663 221.02 768.187 222.109 767.235 223.061C766.282 224.014 765.126 224.49 763.765 224.49H735.194C733.833 224.49 732.677 224.014 731.725 223.061C730.908 222.109 730.5 221.02 730.5 219.796V68.1632ZM951.316 110C950.092 110 949.003 109.592 948.051 108.775C947.099 107.823 946.623 106.667 946.623 105.306V68.5714C946.623 67.2108 947.099 66.1224 948.051 65.3061C949.003 64.3537 950.092 63.8775 951.316 63.8775H976.01C976.555 63.8775 977.099 63.6734 977.643 63.2653C978.731 62.4489 979.82 61.5646 980.908 60.6122C982.133 59.5238 983.289 58.5034 984.378 57.551C985.058 57.1428 985.398 56.5986 985.398 55.9183V28.9795C985.534 28.0272 985.874 27.2108 986.418 26.5306C987.099 25.7142 987.983 25.238 989.072 25.102L1142.13 24.6938C1143.49 24.6938 1144.65 25.17 1145.6 26.1224C1146.55 26.9387 1147.03 28.0272 1147.03 29.3877V58.9795C1147.03 60.4761 1146.55 61.7006 1145.6 62.653C1144.65 63.4693 1143.49 63.8775 1142.13 63.8775H1114.99C1113.77 63.8775 1112.68 63.4013 1111.72 62.4489C1110.77 61.4965 1110.3 60.3401 1110.3 58.9795V34.2857C1110.3 33.7414 1110.16 33.1972 1109.89 32.653C1109.21 30.4761 1107.71 29.3877 1105.4 29.3877H1083.97C1082.74 29.3877 1081.66 29.8639 1080.7 30.8163L1056.83 54.6938C1055.87 55.6462 1054.99 56.5306 1054.17 57.3469C1053.36 58.0272 1052.61 58.7074 1051.93 59.3877C1051.25 60.068 1050.64 60.6802 1050.09 61.2244C1049.68 61.6326 1049.28 61.9727 1048.87 62.2449C1048.46 62.517 1047.98 62.7891 1047.44 63.0612C1047.3 63.0612 1047.17 63.1292 1047.03 63.2653C1046.62 63.4013 1045.87 63.6054 1044.79 63.8775C1026.42 63.8775 1008.12 64.0816 989.888 64.4897C988.799 64.6258 987.779 65.102 986.827 65.9183C986.01 66.7346 985.534 67.7551 985.398 68.9795V74.6938L985.194 96.9387C984.922 98.0272 984.31 98.9115 983.357 99.5918C982.541 100.272 981.589 100.612 980.5 100.612H953.357C951.997 100.612 951.316 101.224 951.316 102.449V103.469C951.316 104.694 951.997 105.306 953.357 105.306H1000.3L1047.03 105.51H1105.4C1105.94 105.51 1106.35 105.442 1106.62 105.306H1142.13C1143.49 105.306 1144.65 105.782 1145.6 106.735C1146.55 107.687 1147.03 108.775 1147.03 110V138.98C1147.03 140.34 1146.55 141.497 1145.6 142.449C1144.65 143.265 1143.49 143.673 1142.13 143.673H948.663C947.303 143.673 946.623 143.061 946.623 141.837V141.02C946.623 139.66 947.303 138.98 948.663 138.98H975.602C976.963 138.98 978.051 138.571 978.867 137.755C979.82 136.803 980.296 135.578 980.296 134.082V114.898C980.296 113.537 979.82 112.381 978.867 111.429C978.051 110.476 976.963 110 975.602 110H951.316Z" fill="#FF4D00"/>
</svg>

<svg width="1148" height="250" fill="none" xmlns="http://www.w3.org/2000/svg"><path d="M63.67 128.644a9.647 9.647 0 00.083 13.631l45.4 44.921c3.792 3.752 9.908 3.714 13.654-.084L246.592 61.59a9.651 9.651 0 002.778-6.824l-.24-45.17c-.028-5.328-4.37-9.624-9.698-9.596l-45.151.24a9.65 9.65 0 00-6.818 2.873L63.669 128.644z" fill="#FF4D00"/><path d="M44.048 148.048c-16.152 16.324-16.012 42.651.312 58.803 16.324 16.152 42.651 16.012 58.803-.312L237.277 70.995A41.585 41.585 0 00249.3 41.529C249.178 18.565 230.463.047 207.499.169a41.58 41.58 0 00-29.337 12.335L44.048 148.048zM167.209 250c45.928-.245 82.962-37.676 82.717-83.604l-.523-98.074-82.717 83.604.523 98.074zM180.862.44l-14.983.08.08 14.983L180.862.44z" fill="#FF4D00"/><path d="M249.481 83.238l-.079-14.914-14.834 14.993 14.913-.08zM98.145 84.045L180.86.44 82.718.965C36.79 1.21-.244 38.64 0 84.568l98.144-.523zM301.838 187.551c-.953-.816-1.429-1.973-1.429-3.469V68.572c0-1.361.408-2.45 1.225-3.266.952-.952 2.109-1.428 3.469-1.428h17.755c.816 0 1.361-.069 1.633-.205h5.306c.544 0 1.02-.204 1.429-.612a256.08 256.08 0 003.469-2.653 594.625 594.625 0 013.469-3.061c.681-.408 1.021-.953 1.021-1.633v-26.53c0-1.497.612-2.653 1.836-3.47.273-.272.885-.544 1.837-.816l105.714-.204h239.592c9.932-.136 18.028-.204 24.286-.204 1.361 0 2.517.476 3.469 1.428.953.953 1.429 2.041 1.429 3.266v29.591c0 1.497-.476 2.721-1.429 3.674-.952.816-2.108 1.224-3.469 1.224h-27.143c-1.36 0-2.517-.476-3.469-1.428-.817-.953-1.225-2.109-1.225-3.47V34.082c0-.68-.136-1.157-.408-1.429-.68-2.177-2.177-3.265-4.49-3.265h-21.428l-147.551-.204h-21.225c-1.496 0-2.653.544-3.469 1.632L458.164 54.49l-2.653 2.653c-.816.68-1.564 1.36-2.245 2.04l-1.836 1.837c-.273.408-.681.749-1.225 1.02l-1.224.817c-.272 0-.409.068-.409.204l-1.224.408c-.272 0-.612.068-1.02.204a1.81 1.81 0 00-.817.204H343.879c-1.225 0-2.245.409-3.062 1.225-.816.68-1.36 1.565-1.632 2.653v148.776c.952 2.176 2.517 3.265 4.694 3.265 4.761-.136 8.503-.136 11.224 0h6.327c1.496 0 2.517-.068 3.061-.204.68-.272 1.36-.748 2.041-1.429l31.836-30.816a5.422 5.422 0 012.858-1.225h61.836v-14.693c.136-3.946.204-7.143.204-9.592v-5.511V153.469c0-1.496.477-2.653 1.429-3.469.952-.952 2.041-1.429 3.265-1.429h25.306c1.225 0 1.837-.612 1.837-1.836v-1.021c0-1.224-.612-1.836-1.837-1.836l-30.204-.205h-71.224c-1.361 0-2.517-.408-3.47-1.224-.816-.952-1.224-2.109-1.224-3.469V110c0-1.225.408-2.245 1.224-3.061.953-.953 2.109-1.429 3.47-1.429h68.979c1.361 0 2.449.408 3.266 1.225l35.714 35.714c.952.816 1.429 1.973 1.429 3.469v38.164c0 .68-.137 1.36-.409 2.04-.136.545-.476.953-1.02 1.225l-34.898 35.714c-.952.953-2.109 1.429-3.469 1.429H338.981l-37.143-36.939zM516.94 68.571c0-1.36.476-2.449 1.428-3.265.953-.952 2.041-1.428 3.266-1.428h20c3.401-.137 6.462-.205 9.183-.205 1.361 0 2.517.477 3.47 1.429.952.816 1.428 1.905 1.428 3.265v6.327l-.204 22.245c-.272 1.088-.884 1.973-1.836 2.653-.817.68-1.769 1.02-2.858 1.02h-27.143c-1.36 0-2.04.612-2.04 1.837v1.02c0 1.361.68 2.041 2.04 2.041H712.45c1.497 0 2.653.476 3.469 1.429.953.816 1.429 1.904 1.429 3.265v28.98c0 1.224-.476 2.313-1.429 3.265-.816.816-1.972 1.224-3.469 1.224H560.205c-1.224 0-2.313.477-3.265 1.429-.953.952-1.429 2.041-1.429 3.265v66.531c0 .816.068 1.36.204 1.633.681 2.176 2.177 3.265 4.49 3.265 4.898-.136 8.776-.136 11.633 0h6.53c1.633 0 2.79-.068 3.47-.204.68-.272 1.292-.748 1.836-1.429.953-.816 2.041-1.768 3.266-2.857a76.737 76.737 0 013.265-3.061l4.082-4.082a379.889 379.889 0 017.347-7.143 360.972 360.972 0 006.938-6.734 182.272 182.272 0 007.347-6.939c1.089-.816 2.177-1.225 3.266-1.225h95.51c.816 0 1.36.409 1.633 1.225.408.68.272 1.36-.409 2.041l-8.775 8.775a812.885 812.885 0 00-10.816 11.021 90612.91 90612.91 0 00-9.388 9.387c-2.585 2.721-4.014 4.218-4.286 4.49-.952.953-2.041 1.429-3.265 1.429H557.348c-.952 0-2.041-.476-3.265-1.429l-35.715-35.918a2.666 2.666 0 01-1.224-1.225c-.136-.68-.204-1.36-.204-2.04v-40c0-1.497.476-2.654 1.428-3.47.953-.816 2.041-1.224 3.266-1.224h24.285c1.361 0 2.449-.477 3.266-1.429.952-.952 1.428-2.109 1.428-3.469v-19.388c0-1.361-.476-2.449-1.428-3.265-.817-.953-1.905-1.429-3.266-1.429h-24.285c-1.225 0-2.313-.476-3.266-1.429-.952-.952-1.428-2.04-1.428-3.265V68.571zM730.5 68.163c0-1.224.408-2.313 1.225-3.265.952-.952 2.108-1.429 3.469-1.429l24.694-.204c.544 0 1.02-.204 1.428-.612 1.089-.816 2.245-1.7 3.47-2.653a77.788 77.788 0 003.469-2.857c.544-.408.817-.953.817-1.633V28.98c.136-1.225.544-2.177 1.224-2.858a5.564 5.564 0 012.449-1.428h118.571c1.361 0 2.517.476 3.47 1.428l35.306 36.123c.816.952 1.224 2.109 1.224 3.47v89.795c0 1.089-.408 2.177-1.224 3.265l-30.612 31.429c-.953.952-1.429 2.041-1.429 3.265v21.429c0 1.36.476 2.517 1.429 3.469.952.953 2.109 1.429 3.469 1.429H1009.68c.96-.136 1.7-.272 2.25-.408.54-.272 1.02-.681 1.43-1.225l32.24-30.816c.82-.816 1.91-1.225 3.27-1.225h95.3c.96 0 1.57.409 1.84 1.225.41.68.27 1.292-.41 1.837-2.17 2.177-5.1 5.17-8.77 8.979a795.899 795.899 0 00-10.82 11.021c-3.54 3.537-6.67 6.666-9.39 9.387a604.452 604.452 0 01-4.28 4.49c-1.23.953-2.32 1.429-3.27 1.429H898.051c-1.224 0-2.313-.476-3.265-1.429-.953-.952-1.429-2.041-1.429-3.265V73.266c0-1.225.476-2.314 1.429-3.266.952-.952 2.041-1.429 3.265-1.429h25.306c.544 0 .953-.204 1.225-.612.408-.408.612-.816.612-1.224v-1.02c0-1.225-.612-1.838-1.837-1.838h-150c-1.224 0-2.313.477-3.265 1.43-.952.815-1.429 1.904-1.429 3.264v151.225c0 1.224-.476 2.313-1.428 3.265-.953.953-2.109 1.429-3.47 1.429h-28.571c-1.361 0-2.517-.476-3.469-1.429-.817-.952-1.225-2.041-1.225-3.265V68.163zM951.316 110c-1.224 0-2.313-.408-3.265-1.225-.952-.952-1.428-2.108-1.428-3.469V68.571c0-1.36.476-2.449 1.428-3.265.952-.952 2.041-1.428 3.265-1.428h24.694c.545 0 1.089-.205 1.633-.613a55.903 55.903 0 003.265-2.653 593.46 593.46 0 013.47-3.061c.68-.408 1.02-.952 1.02-1.633V28.98c.136-.953.476-1.77 1.02-2.45.681-.816 1.565-1.292 2.654-1.428l153.058-.408c1.36 0 2.52.476 3.47 1.428.95.817 1.43 1.905 1.43 3.266v29.591c0 1.497-.48 2.722-1.43 3.674-.95.816-2.11 1.224-3.47 1.224h-27.14c-1.22 0-2.31-.476-3.27-1.428-.95-.953-1.42-2.109-1.42-3.47V34.287c0-.545-.14-1.089-.41-1.633-.68-2.177-2.18-3.265-4.49-3.265h-21.43c-1.23 0-2.31.476-3.27 1.428l-23.87 23.878c-.96.952-1.84 1.837-2.66 2.653-.81.68-1.56 1.36-2.24 2.04-.68.681-1.29 1.293-1.84 1.837a8.09 8.09 0 01-1.22 1.02c-.41.273-.89.545-1.43.817-.14 0-.27.068-.41.204-.41.136-1.16.34-2.24.612-18.37 0-36.67.205-54.902.613-1.089.136-2.109.612-3.061 1.428-.817.817-1.293 1.837-1.429 3.061v5.715l-.204 22.245c-.272 1.088-.884 1.973-1.837 2.653-.816.68-1.768 1.02-2.857 1.02h-27.143c-1.36 0-2.041.612-2.041 1.837v1.02c0 1.225.681 1.837 2.041 1.837h46.943l46.73.204h58.37c.54 0 .95-.068 1.22-.204h35.51c1.36 0 2.52.476 3.47 1.429.95.952 1.43 2.04 1.43 3.265v28.98c0 1.36-.48 2.517-1.43 3.469-.95.816-2.11 1.224-3.47 1.224H948.663c-1.36 0-2.04-.612-2.04-1.836v-.817c0-1.36.68-2.04 2.04-2.04h26.939c1.361 0 2.449-.409 3.265-1.225.953-.952 1.429-2.177 1.429-3.673v-19.184c0-1.361-.476-2.517-1.429-3.469-.816-.953-1.904-1.429-3.265-1.429h-24.286z" fill="#FF4D00"/></svg>
